X:7275
T:The Rising Sun
O:england
M:4/4
L:1/8
R:Reel
D:Session tape - Mullach, Clare 1985
K:D
d3B ABde | f2df edBd | ABdB AFDF | EDEF D4 :| d2fd Adfd | egfe dB~B2 |\
defd Adfd | edef dBAB | d2fd Adfd | egfe dB~B2 | defg a3f | afef defd ||


